src/lib/packages/icons/src/assets/filled/rotate-right-circle.svg

<svg width="24" height="24" viewBox="0 0 24 24" fill="none" xmlns="http://www.w3.org/2000/svg">
<path d="M12 2C6.477 2 2 6.477 2 12C2 17.523 6.477 22 12 22C17.523 22 22 17.523 22 12C22 6.477 17.523 2 12 2ZM16.75 10.667C16.75 11.081 16.414 11.417 16 11.417H13.7771C13.3631 11.417 13.0271 11.081 13.0271 10.667C13.0271 10.253 13.3631 9.91699 13.7771 9.91699H14.4829C13.8789 9.19699 12.979 8.75 12 8.75C10.208 8.75 8.75 10.208 8.75 12C8.75 13.792 10.208 15.25 12 15.25C13.242 15.25 14.3569 14.5581 14.9099 13.4441C15.0939 13.0741 15.541 12.921 15.916 13.106C16.287 13.291 16.4379 13.7401 16.2539 14.1111C15.4449 15.7381 13.816 16.75 12 16.75C9.381 16.75 7.25 14.619 7.25 12C7.25 9.381 9.381 7.25 12 7.25C13.235 7.25 14.388 7.73297 15.25 8.54297V8.44507C15.25 8.03107 15.586 7.69507 16 7.69507C16.414 7.69507 16.75 8.03107 16.75 8.44507V10.667Z" fill="currentColor"/>
</svg>

<svg xmlns="http://www.w3.org/2000/svg" width="24" height="24" fill="none"><path fill="currentColor" d="M12 2C6.477 2 2 6.477 2 12s4.477 10 10 10 10-4.477 10-10S17.523 2 12 2Zm4.75 8.667a.75.75 0 0 1-.75.75h-2.223a.75.75 0 0 1 0-1.5h.706A3.245 3.245 0 0 0 12 8.75 3.254 3.254 0 0 0 8.75 12 3.254 3.254 0 0 0 12 15.25a3.23 3.23 0 0 0 2.91-1.806.75.75 0 1 1 1.344.667A4.724 4.724 0 0 1 12 16.75 4.756 4.756 0 0 1 7.25 12 4.756 4.756 0 0 1 12 7.25c1.235 0 2.388.483 3.25 1.293v-.098a.75.75 0 0 1 1.5 0v2.222Z"/></svg>
